!!!SOCIAL_FUNCTION:	miscellaneous songs
!!!PDT:	1929
!!!OTL: No_167_The_Pigeon_and_His_Tiswin_Lodge.krn
!!!REG: Southwest
!!!LANG: Non-Tone
!!!LING_GROUP: Uto-Aztecan
**kern
*staff1
*clefF4
*k[f#]
*M3/4
8.E\L
16E\Jk
=1
12G\L
12G\
12G\J
4G\
8.G\L
16G\Jk
=2||
*M2/4
4G\
8.G\L
16F#\Jk
=3
8G\L
8F#\J
8.E\L
16E\Jk
=4||
*M3/4
4E\
8.C/L
16E/Jk
8.E/L
16C/Jk
=5||
*M5/8
16E\LL
16E\J
8E\
8E\
(8E\
8C\J)
=6||
*M2/4
4E\
8.E\L
16E\Jk
=7
8E\
8r
8.E\L
16E\Jk
=8||
*M3/4
12G\L
12G\
12G\J
4G\
8.G\L
16G\Jk
=9||
*M2/4
4G\
8.G\L
16F#\Jk
=10
8G\L
8F#\J
8.E\L
16E\Jk
=11||
*M3/4
4E\
8.C/L
16E/Jk
8.E/L
16C/Jk
=12||
*M5/8
16E\LL
16E\J
8E\
8E\
(8E\
8C\J)
=13||
*M2/4
4E\
8E\L
8E\J
=14
8E\
8r
8.E\L
16E\Jk
=15||
*M3/4
12G\L
12G\
12G\J
8G\L
8F#\J
8E\
8r
=16
4G\
12G\L
12F#\
12E\J
8G\L
8F#\J
=17||
*M5/8
8E\L
8E\
8E\
8E\
8D\J
=18||
*M2/4
4E\
8.E\L
16E\Jk
=19
8E\
8r
16F#\LK
8.E\J
=20
8.D\L
16D\Jk
8.D/L
16BB/Jk
=21
4D\
8D\L
8D\J
=22
4D\
4r
==
*-
